X: 8157
T: Cook In The Kitchen, The
R: jig
M: 6/8
K: Gmajor
|:DGG GAG|FDE =F2E|D2G GFG|A2 d cAF|
DGG GAG|FDE =F2 d|cAG FGA|1 BGF G2E:|2 BGF G2A||
|:B2B BAG|A2A AGF|G2G GFG|A2 d cAG|
B2B BAG|A2A A2 d|cAG FGA|1 BGF G2A:|2 BGF G2B||
|:d2 e f2 g|a2 g fed|cAG FGA|B2B cAF|
d2 e f2 g|a2 g fed|cAG FGA|1 BGF G2B:|2 BGF G2E:|

